X:1
T:Sailing
T:Sailing
T:Godfrey Marks
%%score [ 1 2 3 4 ]
L:1/8
M:6/8
K:A
V:1 treble-8 nm="Soprano"
V:2 treble-8 nm="Alto"
V:3 bass nm="Tenor"
V:4 bass nm="Bass"
V:1
 c3 c3 | c3 c3 | d c d f2 d | c3- c z c | B B B c2 B | c2 c c2 c | ^d2 d d2 d | =d3- d2 z | c3 c3 | %9
w: Sail- ing,|sail- ing,|O- ver the bound- ing|main. _ For|man- y a storm- y|wind shall blow Ere|Jack comes home a-|gain. _|Sail- ing,|
 c3 c3 | d c d f2 f | ^e3- e z z | d d d ^e2 e | f2 =e !fermata!^d2 d | e !fermata!z ^d =d2 d | %15
w: sail- ing,|O- ver the bound- ing|main. _|man- y a storm- y|wind shall blow Ere|Jack comes home a-|
 c3- c z2 |] %16
w: gain. _|
V:2
 E3 A3 | A3 E3 | F ^E F A2 F | =E3- E z E | D D D E2 D | C2 E A2 A | F2 F G2 A | B3- B2 z | E3 A3 | %9
w: Sail- ing,|sail- ing,|O- ver the bound- ing|main. _ For|man- y a storm- y|wind shall blow Ere|Jack comes home a-|gain. _|Sail- ing,|
 A3 E3 | F ^E F A2 B | c3- c z ^E | F F F G2 G | A2 A !fermata!B2 ^B | c z A =B2 A | A3- A z2 |] %16
w: sail- ing,|O- ver the bound- ing|main. _ For|man- y a storm- y|wind shall blow Ere|Jack comes home a-|gain. _|
V:3
 A,3 E,3 | E,3 A,3 | A, A, A, F,2 A, | A,3- A, z A, | G, G, G, G,2 G, | A,2 A, A,2 A, | %6
w: Sail- ing,|sail- ing,|O- ver the bound- ing|main. _ For|man- y a storm- y|wind shall blow Ere|
 A,2 A, G,2 F, | G,3- G,2 z | A,3 E,3 | E,3 A,3 | A, A, A, A,2 F, | G,3- G, z z | A, A, A, C2 B, | %13
w: Jack comes home a-|gain. _|Sail- ing,|sail- ing,|O- ver the bound- ing|main. _|man- y a storm- y|
 A,2 A, !fermata!A,2 A, | A, z A, G,2 E, | E,3- E, z2 |] %16
w: wind shall blow Ere|Jack comes home a-|gain. _|
V:4
 A,,3 A,,3 | A,,3 A,,3 | D, D, D, D,2 D, | A,,3- A,, z A,, | E, E, E, E,2 E, | A,,2 A,, F,,2 F,, | %6
w: Sail- ing,|sail- ing,|O- ver the bound- ing|main. _ For|man- y a storm- y|wind shall blow Ere|
 B,,2 B,, B,,2 B,, | E,3- E,2 z | A,,3 A,,3 | A,,3 A,,3 | D, D, D, D,2 D, | C,3- C, z z | %12
w: Jack comes home a-|gain. _|Sail- ing,|sail- ing,|O- ver the bound- ing|main. _|
 D, D, D, C,2 C, | F,2 F, !fermata!B,,2 =F, | E, !fermata!z ^F, E,2 A,, | A,,3- A,, z2 |] %16
w: man- y a storm- y|wind shall blow Ere|Jack comes home a-|gain. _|

